Numix-GalliumOS/16/mimetypes/gnome-mime-text-x-makefile.svg

<?xml version="1.0" encoding="UTF-8" standalone="no"?>
<svg
   xmlns:dc="http://purl.org/dc/elements/1.1/"
   xmlns:cc="http://creativecommons.org/ns#"
   xmlns:rdf="http://www.w3.org/1999/02/22-rdf-syntax-ns#"
   xmlns:svg="http://www.w3.org/2000/svg"
   xmlns="http://www.w3.org/2000/svg"
   xmlns:sodipodi="http://sodipodi.sourceforge.net/DTD/sodipodi-0.dtd"
   xmlns:inkscape="http://www.inkscape.org/namespaces/inkscape"
   width="16"
   height="16"
   viewBox="0 0 16 16"
   id="svg2"
   version="1.1"
   inkscape:version="0.48.5 r10040"
   sodipodi:docname="gnome-mime-text-x-makefile.svg">
  <metadata
     id="metadata22">
    <rdf:RDF>
      <cc:Work
         rdf:about="">
        <dc:format>image/svg+xml</dc:format>
        <dc:type
           rdf:resource="http://purl.org/dc/dcmitype/StillImage" />
      </cc:Work>
    </rdf:RDF>
  </metadata>
  <defs
     id="defs20" />
  <sodipodi:namedview
     pagecolor="#ffffff"
     bordercolor="#666666"
     borderopacity="1"
     objecttolerance="10"
     gridtolerance="10"
     guidetolerance="10"
     inkscape:pageopacity="0"
     inkscape:pageshadow="2"
     inkscape:window-width="1280"
     inkscape:window-height="970"
     id="namedview18"
     showgrid="true"
     inkscape:zoom="41.7193"
     inkscape:cx="9.6195784"
     inkscape:cy="5.7275736"
     inkscape:window-x="0"
     inkscape:window-y="0"
     inkscape:window-maximized="1"
     inkscape:current-layer="svg2">
    <inkscape:grid
       type="xygrid"
       id="grid3010" />
  </sodipodi:namedview>
  <path
     style="fill:#dcdcdc;fill-opacity:1"
     d="M 2.667969,-4.46e-4 C 2.324219,-4.46e-4 2,0.337812 2,0.6964467 L 2,15.303108 C 2,15.641365 2.34375,16 2.667969,16 l 10.664062,0 C 13.65625,16 14,15.641365 14,15.303108 L 14,3.9995538 9.9999996,-4.46e-4 z"
     id="path4"
     inkscape:connector-curvature="0"
     sodipodi:nodetypes="ssssssccs" />
  <path
     style="fill:#000000;fill-opacity:0.19599998"
     d="m 10.583223,3.3315848 0.0154,0.01953 0.04005,-0.01953 z m 0.02978,0.667969 3.387,3.664062 0,-3.664062 z"
     id="path6"
     inkscape:connector-curvature="0"
     sodipodi:nodetypes="cccccccc" />
  <g
     style="fill:#888888"
     id="g10"
     transform="matrix(1.1569402,0,0,1.1569402,-1.2555218,-1.3602796)">
    <path
       d="m 10.128906,7.351562 c 0.375,0.117188 0.04297,0.65625 0.585938,0.917969 0.617187,0.304688 0.921875,-0.457031 1.292968,0.085938 0.371094,0.542969 -0.511718,0.457031 -0.484374,1.097656 0.02344,0.640625 0.898437,0.503906 0.570312,1.066406 -0.328125,0.566407 -0.691406,-0.175781 -1.285156,0.164063 -0.59375,0.335937 -0.02734,0.960937 -0.726563,0.984375 C 9.386719,11.6875 9.902344,11.03125 9.285156,10.730469 8.667969,10.429688 8.363281,11.1875 7.992188,10.644531 7.621094,10.101562 8.503906,10.1875 8.476562,9.546875 8.453125,8.90625 7.578125,9.042969 7.90625,8.480469 8.234375,7.914062 8.597656,8.65625 9.191406,8.316406 9.785156,7.980469 9.21875,7.355469 9.917969,7.335938 c 0.085937,-0.00391 0.15625,0 0.210937,0.015624 z m -0.0078,1.628907 C 9.808594,8.917969 9.5,9.101562 9.4375,9.390625 9.371094,9.675781 9.566406,9.957031 9.878906,10.019531 10.191406,10.082031 10.5,9.898438 10.5625,9.609375 10.628906,9.324219 10.433594,9.042969 10.121094,8.980469 z"
       id="path12"
       inkscape:connector-curvature="0" />
    <path
       d="m 7.128906,4.6875 c 0.375,0.113281 0.042969,0.652344 0.585938,0.917969 C 8.332031,5.90625 8.636719,5.144531 9.007812,5.6875 9.378906,6.230469 8.496094,6.148438 8.523438,6.785156 8.546875,7.425781 9.421875,7.289062 9.09375,7.855469 8.765625,8.417969 8.402344,7.679688 7.808594,8.015625 7.214844,8.351562 7.78125,8.980469 7.082031,9 6.386719,9.019531 6.902344,8.363281 6.285156,8.0625 5.667969,7.761719 5.363281,8.523438 4.992188,7.980469 4.621094,7.4375 5.503906,7.519531 5.476562,6.878906 5.453125,6.242188 4.578125,6.378906 4.90625,5.8125 5.234375,5.25 5.597656,5.988281 6.191406,5.652344 6.785156,5.3125 6.21875,4.6875 6.917969,4.667969 c 0.085937,-0.00391 0.15625,0 0.210937,0.019531 z m -0.00781,1.625 C 6.808594,6.253906 6.5,6.4375 6.4375,6.722656 6.371094,7.011719 6.566406,7.292969 6.878906,7.351562 7.191406,7.414062 7.5,7.230469 7.5625,6.945312 7.628906,6.65625 7.433594,6.375 7.121094,6.3125 z"
       id="path14"
       inkscape:connector-curvature="0" />
    <path
       d="m 6.128906,8.351562 c 0.375,0.117188 0.042969,0.65625 0.585938,0.917969 C 7.332031,9.574219 7.636719,8.8125 8.007812,9.355469 8.378906,9.898438 7.496094,9.8125 7.523438,10.453125 7.546875,11.09375 8.421875,10.957031 8.09375,11.519531 7.765625,12.085938 7.402344,11.34375 6.808594,11.683594 6.214844,12.019531 6.78125,12.644531 6.082031,12.667969 5.386719,12.6875 5.902344,12.03125 5.285156,11.730469 4.667969,11.429688 4.363281,12.1875 3.992188,11.644531 3.621094,11.101562 4.503906,11.1875 4.476562,10.546875 4.453125,9.90625 3.578125,10.042969 3.90625,9.480469 4.234375,8.914062 4.597656,9.65625 5.191406,9.316406 5.785156,8.980469 5.21875,8.355469 5.917969,8.335938 c 0.085937,-0.00391 0.15625,0 0.210937,0.015624 z M 6.121094,9.980469 C 5.808594,9.917969 5.5,10.101562 5.4375,10.390625 5.371094,10.675781 5.566406,10.957031 5.878906,11.019531 6.191406,11.082031 6.5,10.898438 6.5625,10.609375 6.628906,10.324219 6.433594,10.042969 6.121094,9.980469 z"
       id="path16"
       inkscape:connector-curvature="0" />
  </g>
  <path
     style="fill:#ffffff;fill-opacity:0.39200003"
     d="m 9.9999996,-4.46e-4 3.9963964,3.9999998 -3.383784,0 c -0.299099,0 -0.6126124,-0.317117 -0.6126124,-0.616216 z"
     id="path8"
     inkscape:connector-curvature="0"
     sodipodi:nodetypes="ccssc" />
</svg>

<svg xmlns="http://www.w3.org/2000/svg" viewBox="0 0 16 16">
 <path d="m 2.668 0 c -0.344 0 -0.668 0.338 -0.668 0.697 l 0 14.607 c 0 0.338 0.344 0.697 0.668 0.697 l 10.664 0 c 0.324 0 0.668 -0.359 0.668 -0.697 l 0 -11.304 -4 -4 z" style="fill:#dcdcdc;fill-opacity:1"/>
 <path d="m 10.583 3.332 0.015 0.02 0.04 -0.02 z m 0.03 0.668 3.387 3.664 0 -3.664 z" style="fill:#000;fill-opacity:0.196"/>
 <g transform="matrix(1.1569402,0,0,1.1569402,-1.2555218,-1.3602796)" style="fill:#888">
  <path d="m 10.129 7.352 c 0.375 0.117 0.043 0.656 0.586 0.918 0.617 0.305 0.922 -0.457 1.293 0.086 0.371 0.543 -0.512 0.457 -0.484 1.098 0.023 0.641 0.898 0.504 0.57 1.066 -0.328 0.566 -0.691 -0.176 -1.285 0.164 -0.594 0.336 -0.027 0.961 -0.727 0.984 c -0.695 0.02 -0.18 -0.637 -0.797 -0.938 -0.617 -0.301 -0.922 0.457 -1.293 -0.086 -0.371 -0.543 0.512 -0.457 0.484 -1.098 -0.023 -0.641 -0.898 -0.504 -0.57 -1.066 0.328 -0.566 0.691 0.176 1.285 -0.164 0.594 -0.336 0.027 -0.961 0.727 -0.98 c 0.086 -0.004 0.156 0 0.211 0.016 z m -0.008 1.629 c -0.313 -0.063 -0.621 0.121 -0.684 0.41 -0.066 0.285 0.129 0.566 0.441 0.629 0.313 0.063 0.621 -0.121 0.684 -0.41 0.066 -0.285 -0.129 -0.566 -0.441 -0.629 z"/>
  <path d="m 7.129 4.688 c 0.375 0.113 0.043 0.652 0.586 0.918 c 0.617 0.301 0.922 -0.461 1.293 0.082 0.371 0.543 -0.512 0.461 -0.484 1.098 0.023 0.641 0.898 0.504 0.57 1.07 -0.328 0.562 -0.691 -0.176 -1.285 0.16 -0.594 0.336 -0.027 0.965 -0.727 0.984 -0.695 0.02 -0.18 -0.637 -0.797 -0.938 -0.617 -0.301 -0.922 0.461 -1.293 -0.082 -0.371 -0.543 0.512 -0.461 0.484 -1.102 -0.023 -0.637 -0.898 -0.5 -0.57 -1.066 0.328 -0.563 0.691 0.176 1.285 -0.16 0.594 -0.34 0.027 -0.965 0.727 -0.984 c 0.086 -0.004 0.156 0 0.211 0.02 z m -0.008 1.625 c -0.313 -0.059 -0.621 0.125 -0.684 0.41 -0.066 0.289 0.129 0.57 0.441 0.629 0.313 0.063 0.621 -0.121 0.684 -0.406 0.066 -0.289 -0.129 -0.57 -0.441 -0.633 z"/>
  <path d="m 6.129 8.352 c 0.375 0.117 0.043 0.656 0.586 0.918 c 0.617 0.305 0.922 -0.457 1.293 0.086 0.371 0.543 -0.512 0.457 -0.484 1.098 0.023 0.641 0.898 0.504 0.57 1.066 -0.328 0.566 -0.691 -0.176 -1.285 0.164 -0.594 0.336 -0.027 0.961 -0.727 0.984 -0.695 0.02 -0.18 -0.637 -0.797 -0.938 -0.617 -0.301 -0.922 0.457 -1.293 -0.086 -0.371 -0.543 0.512 -0.457 0.484 -1.098 -0.023 -0.641 -0.898 -0.504 -0.57 -1.066 0.328 -0.566 0.691 0.176 1.285 -0.164 0.594 -0.336 0.027 -0.961 0.727 -0.98 c 0.086 -0.004 0.156 0 0.211 0.016 z m -0.008 1.629 c -0.313 -0.063 -0.621 0.121 -0.684 0.41 -0.066 0.285 0.129 0.566 0.441 0.629 0.313 0.063 0.621 -0.121 0.684 -0.41 0.066 -0.285 -0.129 -0.566 -0.441 -0.629 z"/>
 </g>
 <path d="m 10 0 3.996 4 -3.384 0 c -0.299 0 -0.613 -0.317 -0.613 -0.616 z" style="fill:#fff;fill-opacity:0.392"/>
</svg>
